; generated by Slic3r 1.0.0RC1 on 2013-12-23 at 22:25:15

; layer_height = 0.32
; perimeters = 4
; top_solid_layers = 4
; bottom_solid_layers = 4
; fill_density = 0.3
; perimeter_speed = 30
; infill_speed = 60
; travel_speed = 90
; nozzle_diameter = 0.4
; filament_diameter = 2.88
; extrusion_multiplier = 0.9
; perimeters extrusion width = 0.38mm
; infill extrusion width = 0.38mm
; solid infill extrusion width = 0.38mm
; top infill extrusion width = 0.38mm
; first layer extrusion width = 0.38mm

G21 ; set units to millimeters
M190 S90 ; wait for bed temperature to be reached
M104 S194 ; set temperature

M109 S194 ; wait for temperature to be reached
G90 ; use absolute coordinates
M83 ; use relative distances for extrusion
G1 F3000.000 E-0.65000
G1 Z0.320 F5400.000
G1 X84.320 Y100.800 F5400.000
G1 E0.65000 F3000.000
G1 X85.120 Y100.380 E0.01535 F720.000
G1 X86.000 Y100.230 E0.01517
G1 X173.000 Y100.230 E1.47808
G1 X173.860 Y100.370 E0.01480
G1 X174.630 Y100.760 E0.01466
G1 X175.240 Y101.370 E0.01466
G1 X175.630 Y102.140 E0.01466
G1 X175.770 Y103.000 E0.01480
G1 X175.770 Y163.000 E1.01937
G1 X175.630 Y163.860 E0.01480
G1 X175.240 Y164.630 E0.01466
G1 X174.630 Y165.240 E0.01466
G1 X173.860 Y165.630 E0.01466
G1 X173.000 Y165.770 E0.01480
G1 X71.000 Y165.760 E1.73292
G1 X70.140 Y165.620 E0.01480
G1 X69.370 Y165.230 E0.01466
G1 X68.760 Y164.620 E0.01466
G1 X68.370 Y163.850 E0.01466
G1 X68.230 Y162.990 E0.01480
G1 X68.230 Y156.990 E0.10194
G1 X68.260 Y156.620 E0.00631
G1 X68.330 Y156.250 E0.00640
G1 X83.330 Y102.260 E0.95200
G1 X83.710 Y101.450 E0.01520
G1 X84.281 Y100.842 E0.01417
G1 X84.560 Y101.100 F5400.000
G1 X85.240 Y100.740 E0.01307 F720.000
G1 X86.000 Y100.620 E0.01307
G1 X173.000 Y100.620 E1.47808
G1 X173.910 Y100.800 E0.01576
G1 X174.690 Y101.310 E0.01583
G1 X175.200 Y102.090 E0.01583
G1 X175.380 Y103.000 E0.01576
G1 X175.380 Y163.000 E1.01937
G1 X175.200 Y163.910 E0.01576
G1 X174.690 Y164.690 E0.01583
G1 X173.910 Y165.200 E0.01583
G1 X173.000 Y165.380 E0.01576
G1 X92.000 Y165.380 E1.37614
G1 X71.000 Y165.370 E0.35678
G1 X70.090 Y165.190 E0.01576
G1 X69.310 Y164.680 E0.01583
G1 X68.800 Y163.900 E0.01583
G1 X68.620 Y162.990 E0.01576
G1 X68.620 Y156.990 E0.10194
G1 X68.640 Y156.670 E0.00545
G1 X68.700 Y156.350 E0.00553
G1 X83.700 Y102.360 E0.95200
G1 X84.030 Y101.660 E0.01315
G1 X84.520 Y101.142 E0.01212
G1 F3000.000 E-0.65000
G1 X167.190 Y103.190 F5400.000
G1 E0.65000 F3000.000
G1 X172.810 Y103.190 E0.09548 F504.000
G1 X172.810 Y162.810 E1.01291
G1 X152.190 Y162.810 E0.35032
G1 X152.190 Y157.190 E0.09548
G1 X165.990 Y157.190 E0.23445
G1 X165.990 Y151.190 E0.10194
G1 X167.190 Y151.190 E0.02039
G1 X167.190 Y103.248 E0.81451
G1 X167.523 Y103.382 F5400.000
G1 X167.574 Y103.574 F5400.000
G1 X172.426 Y103.574 E0.08242 F720.000
G1 X172.426 Y162.426 E0.99985
G1 X152.574 Y162.426 E0.33726
G1 X152.574 Y157.574 E0.08242
G1 X166.374 Y157.574 E0.23445
G1 X166.374 Y151.574 E0.10194
G1 X167.574 Y151.574 E0.02039
G1 X167.574 Y103.632 E0.81451
G1 X167.959 Y103.959 F5400.000
G1 X172.041 Y103.959 E0.06936 F720.000
G1 X172.041 Y162.041 E0.98679
G1 X152.959 Y162.041 E0.32421
G1 X152.959 Y157.959 E0.06937
G1 X166.759 Y157.959 E0.23445
G1 X166.759 Y151.959 E0.10194
G1 X167.959 Y151.959 E0.02039
G1 X167.959 Y104.016 E0.81451
G1 X168.343 Y104.343 F5400.000
G1 X171.657 Y104.343 E0.05631 F720.000
G1 X171.657 Y161.657 E0.97374
G1 X153.343 Y161.657 E0.31115
G1 X153.343 Y158.343 E0.05631
G1 X167.143 Y158.343 E0.23445
G1 X167.143 Y152.343 E0.10194
G1 X168.343 Y152.343 E0.02039
G1 X168.343 Y104.401 E0.81451
G1 F3000.000 E-0.65000
G1 X145.810 Y103.190 F5400.000
G1 E0.65000 F3000.000
G1 X145.810 Y162.810 E1.01291 F504.000
G1 X125.190 Y162.810 E0.35032
G1 X125.190 Y157.190 E0.09548
G1 X138.990 Y157.190 E0.23445
G1 X138.990 Y151.190 E0.10194
G1 X140.190 Y151.190 E0.02039
G1 X140.190 Y103.190 E0.81549
G1 X145.752 Y103.190 E0.09450
G1 X145.618 Y103.523 F5400.000
G1 X145.426 Y103.574 F5400.000
G1 X145.426 Y162.426 E0.99985 F720.000
G1 X125.574 Y162.426 E0.33726
G1 X125.574 Y157.574 E0.08242
G1 X139.374 Y157.574 E0.23445
G1 X139.374 Y151.574 E0.10194
G1 X140.574 Y151.574 E0.02039
G1 X140.574 Y103.574 E0.81549
G1 X145.368 Y103.574 E0.08144
G1 X145.041 Y103.959 F5400.000
G1 X145.041 Y162.041 E0.98679 F720.000
G1 X125.959 Y162.041 E0.32421
G1 X125.959 Y157.959 E0.06937
G1 X139.759 Y157.959 E0.23445
G1 X139.759 Y151.959 E0.10194
G1 X140.959 Y151.959 E0.02039
G1 X140.959 Y103.959 E0.81549
G1 X144.984 Y103.959 E0.06839
G1 X144.657 Y104.343 F5400.000
G1 X144.657 Y161.657 E0.97374 F720.000
G1 X126.343 Y161.657 E0.31115
G1 X126.343 Y158.343 E0.05631
G1 X140.143 Y158.343 E0.23445
G1 X140.143 Y152.343 E0.10194
G1 X141.343 Y152.343 E0.02039
G1 X141.343 Y104.343 E0.81549
G1 X144.599 Y104.343 E0.05533
G1 F3000.000 E-0.65000
G1 X118.810 Y103.190 F5400.000
G1 E0.65000 F3000.000
G1 X118.810 Y162.810 E1.01291 F504.000
G1 X98.190 Y162.810 E0.35032
G1 X98.190 Y157.190 E0.09548
G1 X111.990 Y157.190 E0.23445
G1 X111.990 Y151.190 E0.10194
G1 X113.190 Y151.190 E0.02039
G1 X113.190 Y103.190 E0.81549
G1 X118.752 Y103.190 E0.09450
G1 X118.618 Y103.523 F5400.000
G1 X118.426 Y103.574 F5400.000
G1 X118.426 Y162.426 E0.99985 F720.000
G1 X98.574 Y162.426 E0.33726
G1 X98.574 Y157.574 E0.08242
G1 X112.374 Y157.574 E0.23445
G1 X112.374 Y151.574 E0.10194
G1 X113.574 Y151.574 E0.02039
G1 X113.574 Y103.574 E0.81549
G1 X118.368 Y103.574 E0.08144
G1 X118.041 Y103.959 F5400.000
G1 X118.041 Y162.041 E0.98679 F720.000
G1 X98.959 Y162.041 E0.32421
G1 X98.959 Y157.959 E0.06937
G1 X112.759 Y157.959 E0.23445
G1 X112.759 Y151.959 E0.10194
G1 X113.959 Y151.959 E0.02039
G1 X113.959 Y103.959 E0.81549
G1 X117.984 Y103.959 E0.06839
G1 X117.657 Y104.343 F5400.000
G1 X117.657 Y161.657 E0.97374 F720.000
G1 X99.343 Y161.657 E0.31115
G1 X99.343 Y158.343 E0.05631
G1 X113.143 Y158.343 E0.23445
G1 X113.143 Y152.343 E0.10194
G1 X114.343 Y152.343 E0.02039
G1 X114.343 Y104.343 E0.81549
G1 X117.599 Y104.343 E0.05533
G1 F3000.000 E-0.65000
G1 X91.810 Y103.190 F5400.000
G1 E0.65000 F3000.000
G1 X91.810 Y162.810 E1.01291 F504.000
G1 X71.190 Y162.810 E0.35032
G1 X71.190 Y157.190 E0.09548
G1 X84.990 Y157.190 E0.23445
G1 X84.990 Y151.190 E0.10194
G1 X86.190 Y151.190 E0.02039
G1 X86.190 Y103.190 E0.81549
G1 X91.752 Y103.190 E0.09450
G1 X91.618 Y103.523 F5400.000
G1 X91.426 Y103.574 F5400.000
G1 X91.426 Y162.426 E0.99985 F720.000
G1 X71.574 Y162.426 E0.33726
G1 X71.574 Y157.574 E0.08242
G1 X85.374 Y157.574 E0.23445
G1 X85.374 Y151.574 E0.10194
G1 X86.574 Y151.574 E0.02039
G1 X86.574 Y103.574 E0.81549
G1 X91.368 Y103.574 E0.08144
G1 X91.041 Y103.959 F5400.000
G1 X91.041 Y162.041 E0.98679 F720.000
G1 X71.959 Y162.041 E0.32421
G1 X71.959 Y157.959 E0.06937
G1 X85.759 Y157.959 E0.23445
G1 X85.759 Y151.959 E0.10194
G1 X86.959 Y151.959 E0.02039
G1 X86.959 Y103.959 E0.81549
G1 X90.984 Y103.959 E0.06839
G1 X90.657 Y104.343 F5400.000
G1 X90.657 Y161.657 E0.97374 F720.000
G1 X72.343 Y161.657 E0.31115
G1 X72.343 Y158.343 E0.05631
G1 X86.143 Y158.343 E0.23445
G1 X86.143 Y152.343 E0.10194
G1 X87.343 Y152.343 E0.02039
G1 X87.343 Y104.343 E0.81549
G1 X90.599 Y104.343 E0.05533
G1 X90.398 Y104.641 F5400.000
G1 X90.359 Y104.602 E0.00092 F1440.000
G1 X89.815 Y104.602 E0.00925
G1 X90.398 Y105.185 E0.01400
G1 X90.398 Y105.728 E0.00925
G1 X89.271 Y104.602 E0.02708
G1 X88.728 Y104.602 E0.00925
G1 X90.398 Y106.272 E0.04016
G1 X90.398 Y106.816 E0.00925
G1 X88.184 Y104.602 E0.05324
G1 X87.640 Y104.603 E0.00924
G1 X90.398 Y107.360 E0.06631
G1 X90.398 Y107.904 E0.00925
G1 X87.602 Y105.109 E0.06722
G1 X87.602 Y105.652 E0.00925
G1 X90.398 Y108.448 E0.06722
G1 X90.398 Y108.992 E0.00925
G1 X87.602 Y106.196 E0.06722
G1 X87.602 Y106.740 E0.00925
G1 X90.398 Y109.536 E0.06722
G1 X90.398 Y110.080 E0.00925
G1 X87.602 Y107.284 E0.06722
G1 X87.602 Y107.828 E0.00925
G1 X90.398 Y110.624 E0.06722
G1 X90.398 Y111.167 E0.00925
G1 X87.602 Y108.372 E0.06722
G1 X87.602 Y108.916 E0.00925
G1 X90.398 Y111.711 E0.06722
G1 X90.398 Y112.255 E0.00925
G1 X87.602 Y109.460 E0.06722
G1 X87.602 Y110.004 E0.00925
G1 X90.398 Y112.799 E0.06722
G1 X90.398 Y113.343 E0.00925
G1 X87.602 Y110.548 E0.06722
G1 X87.602 Y111.091 E0.00925
G1 X90.398 Y113.887 E0.06722
G1 X90.398 Y114.431 E0.00925
G1 X87.602 Y111.635 E0.06722
G1 X87.602 Y112.179 E0.00925
G1 X90.398 Y114.975 E0.06722
G1 X90.398 Y115.519 E0.00925
G1 X87.602 Y112.723 E0.06722
G1 X87.602 Y113.267 E0.00925
G1 X90.398 Y116.063 E0.06722
G1 X90.398 Y116.606 E0.00925
G1 X87.602 Y113.811 E0.06722
G1 X87.602 Y114.355 E0.00925
G1 X90.398 Y117.150 E0.06722
G1 X90.398 Y117.694 E0.00925
G1 X87.602 Y114.899 E0.06722
G1 X87.602 Y115.443 E0.00925
G1 X90.398 Y118.238 E0.06722
G1 X90.398 Y118.782 E0.00925
G1 X87.602 Y115.987 E0.06722
G1 X87.602 Y116.530 E0.00925
G1 X90.398 Y119.326 E0.06722
G1 X90.398 Y119.870 E0.00925
G1 X87.602 Y117.074 E0.06722
G1 X87.602 Y117.618 E0.00925
G1 X90.398 Y120.414 E0.06722
G1 X90.398 Y120.958 E0.00925
G1 X87.602 Y118.162 E0.06722
G1 X87.602 Y118.706 E0.00925
G1 X90.398 Y121.502 E0.06722
G1 X90.398 Y122.045 E0.00925
G1 X87.602 Y119.250 E0.06722
G1 X87.602 Y119.794 E0.00925
G1 X90.398 Y122.589 E0.06722
G1 X90.398 Y123.133 E0.00925
G1 X87.602 Y120.338 E0.06722
G1 X87.602 Y120.882 E0.00925
G1 X90.398 Y123.677 E0.06722
G1 X90.398 Y124.221 E0.00925
G1 X87.602 Y121.426 E0.06722
G1 X87.602 Y121.969 E0.00925
G1 X90.398 Y124.765 E0.06722
G1 X90.398 Y125.309 E0.00925
G1 X87.602 Y122.513 E0.06722
G1 X87.602 Y123.057 E0.00925
G1 X90.398 Y125.853 E0.06722
G1 X90.398 Y126.397 E0.00925
G1 X87.602 Y123.601 E0.06722
G1 X87.602 Y124.145 E0.00925
G1 X90.398 Y126.941 E0.06722
G1 X90.398 Y127.484 E0.00925
G1 X87.602 Y124.689 E0.06722
G1 X87.602 Y125.233 E0.00925
G1 X90.398 Y128.028 E0.06722
G1 X90.398 Y128.572 E0.00925
G1 X87.602 Y125.777 E0.06722
G1 X87.602 Y126.321 E0.00925
G1 X90.398 Y129.116 E0.06722
G1 X90.398 Y129.660 E0.00925
G1 X87.602 Y126.865 E0.06722
G1 X87.602 Y127.408 E0.00925
G1 X90.398 Y130.204 E0.06722
G1 X90.398 Y130.748 E0.00925
G1 X87.602 Y127.952 E0.06722
G1 X87.602 Y128.496 E0.00925
G1 X90.398 Y131.292 E0.06722
G1 X90.398 Y131.836 E0.00925
G1 X87.602 Y129.040 E0.06722
G1 X87.602 Y129.584 E0.00925
G1 X90.398 Y132.380 E0.06722
G1 X90.398 Y132.923 E0.00925
G1 X87.602 Y130.128 E0.06722
G1 X87.602 Y130.672 E0.00925
G1 X90.398 Y133.467 E0.06722
G1 X90.398 Y134.011 E0.00925
G1 X87.602 Y131.216 E0.06722
G1 X87.602 Y131.760 E0.00925
G1 X90.398 Y134.555 E0.06722
G1 X90.398 Y135.099 E0.00925
G1 X87.602 Y132.303 E0.06722
G1 X87.602 Y132.847 E0.00925
G1 X90.398 Y135.643 E0.06722
G1 X90.398 Y136.187 E0.00925
G1 X87.602 Y133.391 E0.06722
G1 X87.602 Y133.935 E0.00925
G1 X90.398 Y136.731 E0.06722
G1 X90.398 Y137.275 E0.00925
G1 X87.602 Y134.479 E0.06722
G1 X87.602 Y135.023 E0.00925
G1 X90.398 Y137.819 E0.06722
G1 X90.398 Y138.362 E0.00925
G1 X87.602 Y135.567 E0.06722
G1 X87.602 Y136.111 E0.00925
G1 X90.398 Y138.906 E0.06722
G1 X90.398 Y139.450 E0.00925
G1 X87.602 Y136.655 E0.06722
G1 X87.602 Y137.199 E0.00925
G1 X90.398 Y139.994 E0.06722
G1 X90.398 Y140.538 E0.00925
G1 X87.602 Y137.742 E0.06722
G1 X87.602 Y138.286 E0.00925
G1 X90.398 Y141.082 E0.06722
G1 X90.398 Y141.626 E0.00925
G1 X87.602 Y138.830 E0.06722
G1 X87.602 Y139.374 E0.00925
G1 X90.398 Y142.170 E0.06722
G1 X90.398 Y142.714 E0.00925
G1 X87.602 Y139.918 E0.06722
G1 X87.602 Y140.462 E0.00925
G1 X90.398 Y143.257 E0.06722
G1 X90.398 Y143.801 E0.00925
G1 X87.602 Y141.006 E0.06722
G1 X87.602 Y141.550 E0.00925
G1 X90.398 Y144.345 E0.06722
G1 X90.398 Y144.889 E0.00925
G1 X87.602 Y142.094 E0.06722
G1 X87.602 Y142.638 E0.00925
G1 X90.398 Y145.433 E0.06722
G1 X90.398 Y145.977 E0.00925
G1 X87.602 Y143.181 E0.06722
G1 X87.602 Y143.725 E0.00925
G1 X90.398 Y146.521 E0.06722
G1 X90.398 Y147.065 E0.00925
G1 X87.602 Y144.269 E0.06722
G1 X87.602 Y144.813 E0.00925
G1 X90.398 Y147.609 E0.06722
G1 X90.398 Y148.153 E0.00925
G1 X87.602 Y145.357 E0.06722
G1 X87.602 Y145.901 E0.00925
G1 X90.398 Y148.696 E0.06722
G1 X90.398 Y149.240 E0.00925
G1 X87.602 Y146.445 E0.06722
G1 X87.602 Y146.989 E0.00925
G1 X90.398 Y149.784 E0.06722
G1 X90.398 Y150.328 E0.00925
G1 X87.602 Y147.533 E0.06722
G1 X87.602 Y148.077 E0.00925
G1 X90.398 Y150.872 E0.06722
G1 X90.398 Y151.416 E0.00925
G1 X87.602 Y148.620 E0.06722
G1 X87.602 Y149.164 E0.00925
G1 X90.398 Y151.960 E0.06722
G1 X90.398 Y152.504 E0.00925
G1 X87.602 Y149.708 E0.06722
G1 X87.602 Y150.252 E0.00925
G1 X90.398 Y153.048 E0.06722
G1 X90.398 Y153.592 E0.00925
G1 X87.602 Y150.796 E0.06722
G1 X87.602 Y151.340 E0.00925
G1 X90.398 Y154.135 E0.06722
G1 X90.398 Y154.679 E0.00925
G1 X87.602 Y151.884 E0.06722
G1 X87.602 Y152.428 E0.00925
G1 X90.398 Y155.223 E0.06722
G1 X90.398 Y155.767 E0.00925
G1 X87.233 Y152.602 E0.07610
G1 X86.689 Y152.602 E0.00925
G1 X90.398 Y156.311 E0.08918
G1 X90.398 Y156.855 E0.00925
G1 X86.402 Y152.859 E0.09607
G1 X86.402 Y153.403 E0.00925
G1 X90.398 Y157.399 E0.09607
G1 X90.398 Y157.943 E0.00925
G1 X86.402 Y153.947 E0.09607
G1 X86.402 Y154.491 E0.00925
G1 X90.398 Y158.487 E0.09607
G1 X90.398 Y159.031 E0.00925
G1 X86.402 Y155.035 E0.09607
G1 X86.402 Y155.579 E0.00925
G1 X90.398 Y159.574 E0.09607
G1 X90.398 Y160.118 E0.00925
G1 X86.402 Y156.123 E0.09607
G1 X86.402 Y156.667 E0.00925
G1 X90.398 Y160.662 E0.09607
G1 X90.398 Y161.206 E0.00925
G1 X86.402 Y157.211 E0.09607
G1 X86.402 Y157.755 E0.00925
G1 X90.045 Y161.398 E0.08760
G1 X89.502 Y161.398 E0.00925
G1 X86.402 Y158.298 E0.07453
G1 X86.162 Y158.602 E0.00658
G1 X88.958 Y161.398 E0.06722
G1 X88.414 Y161.398 E0.00925
G1 X85.618 Y158.602 E0.06722
G1 X85.074 Y158.602 E0.00925
G1 X87.870 Y161.398 E0.06722
G1 X87.326 Y161.398 E0.00925
G1 X84.530 Y158.602 E0.06722
G1 X83.987 Y158.602 E0.00925
G1 X86.782 Y161.398 E0.06722
G1 X86.238 Y161.398 E0.00925
G1 X83.443 Y158.602 E0.06722
G1 X82.899 Y158.602 E0.00925
G1 X85.694 Y161.398 E0.06722
G1 X85.150 Y161.398 E0.00925
G1 X82.355 Y158.602 E0.06722
G1 X81.811 Y158.602 E0.00925
G1 X84.606 Y161.398 E0.06722
G1 X84.063 Y161.398 E0.00925
G1 X81.267 Y158.602 E0.06722
G1 X80.723 Y158.602 E0.00925
G1 X83.519 Y161.398 E0.06722
G1 X82.975 Y161.398 E0.00925
G1 X80.179 Y158.602 E0.06722
G1 X79.635 Y158.602 E0.00925
G1 X82.431 Y161.398 E0.06722
G1 X81.887 Y161.398 E0.00925
G1 X79.091 Y158.602 E0.06722
G1 X78.548 Y158.602 E0.00925
G1 X81.343 Y161.398 E0.06722
G1 X80.799 Y161.398 E0.00925
G1 X78.004 Y158.602 E0.06722
G1 X77.460 Y158.602 E0.00925
G1 X80.255 Y161.398 E0.06722
G1 X79.711 Y161.398 E0.00925
G1 X76.916 Y158.602 E0.06722
G1 X76.372 Y158.602 E0.00925
G1 X79.167 Y161.398 E0.06722
G1 X78.624 Y161.398 E0.00925
G1 X75.828 Y158.602 E0.06722
G1 X75.284 Y158.602 E0.00925
G1 X78.080 Y161.398 E0.06722
G1 X77.536 Y161.398 E0.00925
G1 X74.740 Y158.602 E0.06722
G1 X74.196 Y158.602 E0.00925
G1 X76.992 Y161.398 E0.06722
G1 X76.448 Y161.398 E0.00925
G1 X73.652 Y158.602 E0.06722
G1 X73.109 Y158.602 E0.00925
G1 X75.904 Y161.398 E0.06722
G1 X75.360 Y161.398 E0.00925
G1 X72.602 Y158.640 E0.06632
G1 X72.602 Y159.184 E0.00925
G1 X74.816 Y161.398 E0.05324
G1 X74.272 Y161.398 E0.00925
G1 X72.602 Y159.728 E0.04016
G1 X72.602 Y160.271 E0.00925
G1 X73.728 Y161.398 E0.02708
G1 X73.185 Y161.398 E0.00925
G1 X72.602 Y160.815 E0.01400
G1 X72.602 Y161.359 E0.00925
G1 X72.641 Y161.398 E0.00092
G1 F3000.000 E-0.65000
G1 X99.641 Y161.398 F5400.000
G1 E0.65000 F3000.000
G1 X99.602 Y161.359 E0.00092 F1440.000
G1 X99.602 Y160.815 E0.00925
G1 X100.185 Y161.398 E0.01400
G1 X100.728 Y161.398 E0.00925
G1 X99.602 Y160.271 E0.02708
G1 X99.602 Y159.728 E0.00925
G1 X101.272 Y161.398 E0.04016
G1 X101.816 Y161.398 E0.00925
G1 X99.602 Y159.184 E0.05324
G1 X99.602 Y158.640 E0.00925
G1 X102.360 Y161.398 E0.06632
G1 X102.904 Y161.398 E0.00925
G1 X100.109 Y158.602 E0.06722
G1 X100.652 Y158.602 E0.00925
G1 X103.448 Y161.398 E0.06722
G1 X103.992 Y161.398 E0.00925
G1 X101.196 Y158.602 E0.06722
G1 X101.740 Y158.602 E0.00925
G1 X104.536 Y161.398 E0.06722
G1 X105.080 Y161.398 E0.00925
G1 X102.284 Y158.602 E0.06722
G1 X102.828 Y158.602 E0.00925
G1 X105.624 Y161.398 E0.06722
G1 X106.167 Y161.398 E0.00925
G1 X103.372 Y158.602 E0.06722
G1 X103.916 Y158.602 E0.00925
G1 X106.711 Y161.398 E0.06722
